src/assets/icons/remotes/protondrive.svg

<svg width="24" height="24" viewBox="0 0 24 24" fill="currentColor" xmlns="http://www.w3.org/2000/svg">
    <path
        d="M4.08334 17.1667V16.8333C4.08334 16.1667 4.25001 15.5 4.50001 14.9167C4.75001 14.3333 5.16668 13.75 5.58334 13.25C6.08334 12.75 6.58334 12.4167 7.25001 12.1667C7.83334 11.9167 8.50001 11.75 9.16668 11.75H13C13.8333 11.75 14.5833 11.4167 15.1667 10.8333C15.75 10.25 16.0833 9.41667 16.0833 8.66667C16.0833 7.91667 15.75 7.08333 15.1667 6.5C14.5833 5.91667 13.75 5.58333 13 5.58333H7.66668V8.66667H4.08334V2H13.3333C15.0833 2 16.75 2.66667 18 3.91667C19.25 5.16667 19.9167 6.83333 19.9167 8.58333C19.9167 10.3333 19.25 12 18 13.25C16.75 14.5 15.0833 15.1667 13.3333 15.1667H10.75L9.16668 15.0833C7.16668 15.0833 5.41668 15.8333 4.08334 17.1667ZM7.75001 17.3333V22H4.08334C4.08334 20 5.33334 18.25 7.08334 17.5C7.33334 17.4167 7.50001 17.3333 7.75001 17.3333Z" />
</svg>

<svg xmlns="http://www.w3.org/2000/svg" width="24" height="24" fill="currentColor" viewBox="0 0 24 24"><path d="M4.083 17.167v-.334c0-.666.167-1.333.417-1.916.25-.584.667-1.167 1.083-1.667.5-.5 1-.833 1.667-1.083a4.9 4.9 0 0 1 1.917-.417H13c.833 0 1.583-.333 2.167-.917.583-.583.916-1.416.916-2.166s-.333-1.584-.916-2.167c-.584-.583-1.417-.917-2.167-.917H7.667v3.084H4.083V2h9.25c1.75 0 3.417.667 4.667 1.917a6.55 6.55 0 0 1 1.917 4.666c0 1.75-.667 3.417-1.917 4.667a6.55 6.55 0 0 1-4.667 1.917H10.75l-1.583-.084c-2 0-3.75.75-5.084 2.084m3.667.166V22H4.083c0-2 1.25-3.75 3-4.5.25-.083.417-.167.667-.167"/></svg>
